public/img/AboutUs/cycles-5.svg

<svg width="164" height="104" viewBox="0 0 164 104" fill="none" xmlns="http://www.w3.org/2000/svg">
<path d="M13.6667 64.0128C15.5648 64.0128 16.8935 63.2507 17.6528 61.7266C18.412 60.2025 18.412 58.6784 17.6528 57.1542C16.8935 55.6301 15.5648 54.8681 13.6667 54.8681C11.7685 54.8681 10.4398 55.6301 9.68056 57.1542C8.9213 58.6784 8.9213 60.2025 9.68056 61.7266C10.4398 63.2507 11.7685 64.0128 13.6667 64.0128ZM118.516 59.8691C118.041 59.2499 117.128 58.0592 115.775 56.2969C114.423 54.5347 113.438 53.2487 112.821 52.439C112.204 51.6293 111.303 50.4624 110.116 48.9383C108.93 47.4142 107.922 46.1521 107.091 45.1519C106.261 44.1517 105.3 43.0324 104.208 41.794C103.117 40.5557 102.049 39.3888 101.005 38.2933L92.1076 48.2953C88.169 52.7724 83.2219 54.9633 77.2665 54.8681C71.3111 54.7728 66.4352 52.439 62.6389 47.8667C59.934 44.5803 58.5935 40.8177 58.6172 36.5787C58.6409 32.3398 60.0289 28.6009 62.7812 25.3622L75.3802 10.645C74.3362 10.1211 73.1262 9.72813 71.75 9.46617C70.3738 9.20422 69.2468 9.06133 68.3689 9.03751C67.491 9.0137 66.1505 9.02561 64.3472 9.07324C62.544 9.12086 61.3814 9.14468 60.8594 9.14468C56.4936 9.14468 52.7448 10.7164 49.6128 13.8599L38.3663 25.1479H27.3333V64.0128C27.5706 64.0128 28.0689 64.0008 28.8281 63.977C29.5874 63.9532 30.1094 63.9532 30.3941 63.977C30.6788 64.0008 31.1415 64.0485 31.7821 64.1199C32.4227 64.1914 32.9091 64.2985 33.2413 64.4414C33.5735 64.5843 33.9887 64.7867 34.487 65.0487C34.9852 65.3106 35.4242 65.6321 35.8038 66.0132L56.9444 86.8745C62.4016 92.1612 67.7876 94.8046 73.1024 94.8046C76.8038 94.8046 79.7697 93.6853 82 91.4468C84.7049 92.3994 87.3741 92.2088 90.0078 90.8753C92.6415 89.5416 94.3617 87.5174 95.1684 84.8026C98.68 85.0884 101.693 84.0406 104.208 81.6591C105.157 80.8018 106.012 79.7183 106.771 78.4085C107.53 77.0987 107.862 75.8961 107.767 74.8006C108.242 75.2769 109.262 75.515 110.828 75.515C112.869 75.515 114.696 75.0149 116.309 74.0147C117.922 73.0145 119.097 71.7524 119.832 70.2283C120.568 68.7042 120.853 67.0014 120.687 65.1201C120.521 63.2388 119.797 61.4884 118.516 59.8691ZM129.833 64.0128H136.667V27.434H130.047L118.872 14.5743C115.74 10.9546 111.73 9.14468 106.842 9.14468H94.9549C90.7315 9.14468 87.2674 10.7402 84.5625 13.9313L69.6858 31.2919C68.3571 32.8637 67.6927 34.6498 67.6927 36.6502C67.6927 38.6506 68.3333 40.4366 69.6146 42.0084C71.6551 44.4374 74.265 45.6758 77.4444 45.7234C80.6238 45.771 83.2575 44.6041 85.3455 42.2227L99.0833 26.6482C100.27 25.5527 101.539 25.0407 102.891 25.1121C104.244 25.1836 105.359 25.8266 106.237 27.0411C107.115 28.2556 107.317 29.6011 106.842 31.0776C107.601 31.9826 108.93 33.4829 110.828 35.5785C112.726 37.6742 114.15 39.2935 115.099 40.4366C116.475 42.1513 118.433 44.6637 120.971 47.9738C123.51 51.284 125.041 53.2963 125.562 54.0108C128.03 57.1542 129.454 60.4882 129.833 64.0128ZM150.333 64.0128C152.231 64.0128 153.56 63.2507 154.319 61.7266C155.079 60.2025 155.079 58.6784 154.319 57.1542C153.56 55.6301 152.231 54.8681 150.333 54.8681C148.435 54.8681 147.106 55.6301 146.347 57.1542C145.588 58.6784 145.588 60.2025 146.347 61.7266C147.106 63.2507 148.435 64.0128 150.333 64.0128ZM164 22.8617V68.5851C164 69.8234 163.549 70.8951 162.648 71.8C161.746 72.705 160.678 73.1574 159.444 73.1574H128.552C127.271 76.2533 125.325 78.7895 122.715 80.7661C120.105 82.7427 117.139 83.9691 113.818 84.4454C112.252 86.7316 110.342 88.6724 108.088 90.268C105.834 91.8635 103.402 92.9471 100.792 93.5186C98.7986 96.0429 96.3192 97.9838 93.3533 99.3412C90.3874 100.699 87.3385 101.282 84.2066 101.092C81.3594 102.711 78.3698 103.652 75.2378 103.914C72.1059 104.176 69.0807 103.842 66.1623 102.913C63.2439 101.985 60.4679 100.711 57.8342 99.0912C55.2005 97.4718 52.7448 95.5428 50.467 93.3043L30.0382 73.1574H4.55556C3.32176 73.1574 2.25405 72.705 1.35243 71.8C0.45081 70.8951 0 69.8234 0 68.5851V20.5755C0 19.3372 0.45081 18.2655 1.35243 17.3606C2.25405 16.4557 3.32176 16.0032 4.55556 16.0032H34.5226C35.1869 15.3364 36.3021 14.1933 37.8681 12.5739C39.434 10.9546 40.5611 9.81148 41.2491 9.14468C41.9372 8.47788 42.9812 7.52531 44.3811 6.28697C45.781 5.04862 46.9792 4.15559 47.9757 3.60786C48.9722 3.06013 50.1823 2.45287 51.6059 1.78607C53.0295 1.11927 54.5006 0.654892 56.0191 0.392935C57.5376 0.130978 59.151 0 60.8594 0H69.1875C73.8854 0 78.18 1.3336 82.0712 4.0008C85.9624 1.3336 90.2569 0 94.9549 0H106.842C108.503 0 110.093 0.142886 111.611 0.428657C113.13 0.714428 114.47 1.05973 115.633 1.46458C116.795 1.86942 118.017 2.5005 119.299 3.35781C120.58 4.21513 121.636 4.95337 122.466 5.57254C123.297 6.19171 124.317 7.13237 125.527 8.39453C126.737 9.65669 127.662 10.6569 128.303 11.3951C128.944 12.1334 129.916 13.2765 131.221 14.8244C132.526 16.3723 133.511 17.5273 134.175 18.2894H159.444C160.678 18.2894 161.746 18.7418 162.648 19.6468C163.549 20.5517 164 21.6234 164 22.8617Z" fill="white"/>
</svg>

<svg width="164" height="104" fill="none" xmlns="http://www.w3.org/2000/svg"><path d="M13.667 64.013c1.898 0 3.226-.762 3.986-2.286.759-1.524.759-3.049 0-4.573-.76-1.524-2.088-2.286-3.986-2.286-1.899 0-3.227.762-3.986 2.286-.76 1.524-.76 3.048 0 4.573.759 1.524 2.088 2.286 3.986 2.286Zm104.849-4.144-2.741-3.572a1688.066 1688.066 0 0 1-2.954-3.858c-.617-.81-1.518-1.977-2.705-3.5a156.192 156.192 0 0 0-3.025-3.787c-.83-1-1.791-2.12-2.883-3.358a121.547 121.547 0 0 0-3.203-3.5l-8.897 10.001c-3.939 4.477-8.886 6.668-14.842 6.573-5.955-.095-10.83-2.429-14.627-7.001-2.705-3.287-4.046-7.05-4.022-11.288.024-4.24 1.412-7.978 4.164-11.217l12.6-14.717c-1.045-.524-2.255-.917-3.631-1.179s-2.503-.405-3.381-.428c-.878-.024-2.219-.012-4.022.035a175.39 175.39 0 0 1-3.488.072c-4.365 0-8.114 1.571-11.246 4.715L38.366 25.148H27.333v38.865c.238 0 .736-.012 1.495-.036.76-.024 1.281-.024 1.566 0 .285.024.748.072 1.388.143.64.071 1.127.178 1.46.321.332.143.747.346 1.245.608.498.262.937.583 1.317.964l21.14 20.861c5.458 5.287 10.844 7.93 16.158 7.93 3.702 0 6.668-1.119 8.898-3.357 2.705.952 5.374.762 8.008-.572 2.633-1.333 4.354-3.358 5.16-6.072 3.512.285 6.525-.762 9.04-3.144.949-.857 1.804-1.94 2.563-3.25.759-1.31 1.091-2.513.996-3.608.475.476 1.495.714 3.061.714 2.041 0 3.868-.5 5.481-1.5s2.788-2.263 3.523-3.787c.736-1.524 1.021-3.227.855-5.108-.166-1.881-.89-3.632-2.171-5.25Zm11.317 4.144h6.834V27.434h-6.62l-11.175-12.86c-3.132-3.62-7.142-5.43-12.03-5.43H94.955c-4.224 0-7.688 1.596-10.392 4.787l-14.877 17.36c-1.329 1.573-1.993 3.359-1.993 5.36 0 2 .64 3.786 1.922 5.357 2.04 2.43 4.65 3.668 7.83 3.715 3.179.048 5.813-1.119 7.9-3.5l13.738-15.575c1.187-1.095 2.456-1.607 3.808-1.536 1.353.072 2.468.715 3.346 1.93.878 1.214 1.08 2.56.605 4.036.759.905 2.088 2.405 3.986 4.5 1.898 2.096 3.322 3.715 4.271 4.859 1.376 1.714 3.334 4.227 5.872 7.537 2.539 3.31 4.07 5.322 4.591 6.037 2.468 3.143 3.892 6.477 4.271 10.002Zm20.5 0c1.898 0 3.227-.762 3.986-2.286.76-1.524.76-3.049 0-4.573-.759-1.524-2.088-2.286-3.986-2.286-1.898 0-3.227.762-3.986 2.286-.759 1.524-.759 3.048 0 4.573.759 1.524 2.088 2.286 3.986 2.286ZM164 22.862v45.723c0 1.238-.451 2.31-1.352 3.215-.902.905-1.97 1.357-3.204 1.357h-30.892c-1.281 3.096-3.227 5.633-5.837 7.61-2.61 1.976-5.576 3.202-8.897 3.678a23.004 23.004 0 0 1-5.73 5.823c-2.254 1.596-4.686 2.68-7.296 3.25-1.993 2.525-4.473 4.466-7.439 5.823-2.966 1.358-6.014 1.941-9.146 1.751-2.848 1.619-5.837 2.56-8.97 2.822-3.131.262-6.156-.072-9.075-1.001a37.582 37.582 0 0 1-8.328-3.822 41.525 41.525 0 0 1-7.367-5.787L30.038 73.157H4.556c-1.234 0-2.302-.452-3.204-1.357C.451 70.895 0 69.823 0 68.585v-48.01c0-1.238.45-2.31 1.352-3.214.902-.905 1.97-1.358 3.204-1.358h29.967c.664-.667 1.78-1.81 3.345-3.43 1.566-1.618 2.693-2.762 3.381-3.428.688-.667 1.732-1.62 3.132-2.858 1.4-1.238 2.598-2.131 3.595-2.68a64.183 64.183 0 0 1 3.63-1.82A17.295 17.295 0 0 1 56.019.392 28.467 28.467 0 0 1 60.86 0h8.328c4.698 0 8.993 1.334 12.884 4 3.891-2.666 8.186-4 12.884-4h11.887c1.661 0 3.251.143 4.769.429 1.519.285 2.859.63 4.022 1.036 1.162.404 2.384 1.036 3.666 1.893a77.901 77.901 0 0 1 3.167 2.215c.831.619 1.851 1.56 3.061 2.822s2.135 2.262 2.776 3 1.613 1.882 2.918 3.43a305.321 305.321 0 0 0 2.954 3.464h25.269c1.234 0 2.302.453 3.204 1.358.901.905 1.352 1.976 1.352 3.215Z" fill="#fff"/></svg>
